icon-themes/breeze_svg/cmd/nl/sc_underlinedouble.svg

<svg viewBox="0 0 16 16" xmlns="http://www.w3.org/2000/svg"><path d="m7.5 2c-1.933 0-3.5 1.34315-3.5 3v1 4 1c0 .771774.3495813 1.468404.9082031 2h-2.9082031v1h5.5 5.5v-1h-2.908203c.558622-.531596.908203-1.228226.908203-2v-1-5c0-1.65685-1.567-3-3.5-3zm.5 1c1.10457 0 2 .89543 2 2v1 1.09375 1.8125 2.09375c0 1.10457-.89543 2-2 2s-2-.89543-2-2v-1-1.6875-.625-2.6875c0-1.10457.89543-2 2-2zm-6 12v1h11v-1z" fill="#4d4d4d"/></svg>

<svg xmlns="http://www.w3.org/2000/svg" viewBox="0 0 16 16">
<path
   style="fill:#4d4d4d"
   d="M 7.5 2 C 5.567 2 4 3.34315 4 5 L 4 6 L 4 10 L 4 11 C 4 11.771774 4.3495813 12.468404 4.9082031 13 L 2 13 L 2 14 L 7.5 14 L 13 14 L 13 13 L 10.091797 13 C 10.650419 12.468404 11 11.771774 11 11 L 11 10 L 11 5 C 11 3.34315 9.433 2 7.5 2 z M 8 3 C 9.10457 3 10 3.89543 10 5 L 10 6 L 10 7.09375 L 10 8.90625 L 10 11 C 10 12.10457 9.10457 13 8 13 C 6.89543 13 6 12.10457 6 11 L 6 10 L 6 8.3125 L 6 7.6875 L 6 5 C 6 3.89543 6.89543 3 8 3 z M 2 15 L 2 16 L 13 16 L 13 15 L 2 15 z "
   />
</svg>
